X: 1
T: Spillanes
R: polka
M: 2/4
L: 1/8
K: Gmaj
|G2 BA/B/|dB G2 |BA/B/ dG|BA A2|
| G2 BA/B/|dB GA/B/ | cA FG | AG G2:|
|g2 e/f/g/e/ | dB G2 |BA/B/ dG|BA A2|
|1 g2 e/f/g/e/ | dB GA/B/ | cA FG | AG G2:|
|2 dg e/f/g/e/ | dB GA/B/ | cA FG | AG G2||

